icons/folder-lock.svg

<svg width="24" height="24" viewBox="0 0 24 24" fill="none" xmlns="http://www.w3.org/2000/svg">
<path d="M10 4H3V20H21V6H12L10 4Z" stroke="white" stroke-width="2" stroke-linecap="round" stroke-linejoin="round"/>
<path d="M14 13.5V11.5C14 10.3954 13.1046 9.5 12 9.5C10.8954 9.5 10 10.3954 10 11.5V13.5" stroke="white" stroke-width="2" stroke-linecap="round" stroke-linejoin="round"/>
<path d="M9 16.5V13.5H15V16.5H9Z" stroke="white" stroke-width="2" stroke-linecap="round" stroke-linejoin="round"/>
</svg>

<svg
  width="24"
  height="24"
  viewBox="0 0 24 24"
  xmlns="http://www.w3.org/2000/svg"
  fill="none"
  stroke="currentColor"
  stroke-width="2"
  stroke-linecap="round"
  stroke-linejoin="round"
>
  <path d="M10 4H3v16h18V6h-9l-2-2z" />
  <path d="M14 13.5v-2a2 2 0 1 0-4 0v2" />
  <path d="M9 16.5v-3h6v3H9z" />
</svg>
